public/images/block-paper-left.svg

<svg height="20" viewBox="0 0 20 20" width="20" xmlns="http://www.w3.org/2000/svg"><path d="m-.00195313 0v8.59375l5.09179693.4589844c.4568349-2.3512 2.5149942-4.0527344 4.9101562-4.0527344 2.760053.0033 4.9967 2.2399 5 5 0 2.7614-2.238576 5-5 5s-5-2.2386-5-5l-5 .068359v10.085938h20v-20.154297z" fill="#fff"/></svg>

<svg xmlns="http://www.w3.org/2000/svg" width="20" height="20" viewBox="0 0 20 20">
    <path d="M -0.001953125 0 L -0.001953125 8.59375 L 5.0898438 9.0527344 C 5.5466787 6.7015344 7.604838 5 10 5 C 12.760053 5.0033 14.9967 7.2399 15 10 C 15 12.7614 12.761424 15 10 15 C 7.238576 15 5 12.7614 5 10 L 0 10.068359 L 0 20.154297 L 20 20.154297 L 20 0 L -0.001953125 0 z " style="fill:#fff"/>
</svg>
